src/assets/loading.green.svg

<svg fill="none" height="24" viewBox="0 0 25 24" width="25" xmlns="http://www.w3.org/2000/svg"><g fill="#3dc233" fill-opacity=".2"><path d="m23.5 12c0 6.0751-4.9249 11-11 11-6.07513 0-11-4.9249-11-11 0-6.07513 4.92487-11 11-11 6.0751 0 11 4.92487 11 11zm-19.8 0c0 4.8601 3.93989 8.8 8.8 8.8 4.8601 0 8.8-3.9399 8.8-8.8 0-4.86011-3.9399-8.8-8.8-8.8-4.86011 0-8.8 3.93989-8.8 8.8z" opacity=".5"/><path d="m12.5 21.9c0 .6075-.4937 1.1057-1.0982 1.045-1.55678-.1562-3.06679-.6432-4.42699-1.4333-1.67819-.9748-3.06859-2.3763-4.03007-4.0622-.96147-1.6859-1.4598-3.5961-1.44439-5.5368.0154-1.94074.544-3.84283 1.53212-5.51323.98813-1.67039 2.4006-3.04962 4.09406-3.99769 1.69345-.94806 3.60757-1.431208 5.54817-1.40039 1.9405.03081 3.8383.57449 5.5008 1.57584 1.3475.81162 2.5015 1.90049 3.3881 3.18966.3442.50057.1454 1.17317-.3871 1.46572-.5324.29255-1.1959.09301-1.5526-.3988-.6911-.953-1.5687-1.76079-2.5835-2.37202-1.33-.80109-2.8483-1.23603-4.4007-1.26068s-3.08371.36186-4.43848 1.12032c-1.35476.75845-2.48474 1.86183-3.27524 3.19815-.7905 1.33631-1.21338 2.85802-1.2257 4.41052-.01233 1.5526.38633 3.0808 1.15551 4.4295.76919 1.3487 1.88151 2.4699 3.22406 3.2498 1.02437.595 2.15495.9752 3.32295 1.1219.6028.0758 1.0972.5612 1.0972 1.1687z"/></g></svg>

<svg width="25" height="24" viewBox="0 0 25 24" fill="none" xmlns="http://www.w3.org/2000/svg">
<path opacity="0.5" d="M23.5 12C23.5 18.0751 18.5751 23 12.5 23C6.42487 23 1.5 18.0751 1.5 12C1.5 5.92487 6.42487 1 12.5 1C18.5751 1 23.5 5.92487 23.5 12ZM3.7 12C3.7 16.8601 7.63989 20.8 12.5 20.8C17.3601 20.8 21.3 16.8601 21.3 12C21.3 7.13989 17.3601 3.2 12.5 3.2C7.63989 3.2 3.7 7.13989 3.7 12Z" fill="#3DC233" fill-opacity="0.2"/>
<path d="M12.5 21.9C12.5 22.5075 12.0063 23.0057 11.4018 22.945C9.84502 22.7888 8.33501 22.3018 6.97481 21.5117C5.29662 20.5369 3.90622 19.1354 2.94474 17.4495C1.98327 15.7636 1.48494 13.8534 1.50035 11.9127C1.51575 9.97196 2.04435 8.06987 3.03247 6.39947C4.0206 4.72908 5.43307 3.34985 7.12653 2.40178C8.81998 1.45372 10.7341 0.970572 12.6747 1.00139C14.6152 1.0322 16.513 1.57588 18.1755 2.57723C19.523 3.38885 20.677 4.47772 21.5636 5.76689C21.9078 6.26746 21.709 6.94006 21.1765 7.23261C20.6441 7.52516 19.9806 7.32562 19.6239 6.83381C18.9328 5.88081 18.0552 5.07302 17.0404 4.46179C15.7104 3.6607 14.1921 3.22576 12.6397 3.20111C11.0873 3.17646 9.55599 3.56297 8.20122 4.32143C6.84646 5.07988 5.71648 6.18326 4.92598 7.51958C4.13548 8.85589 3.7126 10.3776 3.70028 11.9301C3.68795 13.4827 4.08661 15.0109 4.85579 16.3596C5.62498 17.7083 6.7373 18.8295 8.07985 19.6094C9.10422 20.2044 10.2348 20.5846 11.4028 20.7313C12.0056 20.8071 12.5 21.2925 12.5 21.9Z" fill="#3DC233" fill-opacity="0.2"/>
</svg>
